X:174
T: Das arme Maegdlein
N: A0212A
O: Europa, Mitteleuropa, Deutschland
N: Forster III 1549 No. 31.
R: Romanze, Ballade, Lied
M: 4/2
L: 1/4
K: G
G2 | G2G2G2D2 | G3A_B2c2 | d_BAGA2A2 | G4z2
G2 | A2A2d2A2 | _B4AGc2 | A4z2
G2 | G2G2G2D2 | G3A_B2c2 | d_BAGA2A2 | G4z2
G2 | A2A2d2A2 | _B4AGc2 | A4z2
A2 | _B2A2d3c | _B2A2G2
A2 | =F2G2A3G | =F2EDE4 | D4z2
D2 | G2F2G4 | z2A2_B2A2 | G4z2
d2 | d2d2A2d2 | c2_B2c2A2 | G4z2
d2 | _B2A2G2D2 | G3A_B2c2 | d_BAGA4 | G6

